!!!!SEGMENT: pl-sa--233-a-vi-37--003_bach-johann-christian--sinphonia-ex-d-presto.krn
!!!cenid: 17xx:1828
!!!COM: Bach, Johann Christian
!!!COM-rismID: pe2530
!!!CDT: 1735/09/05-1782/01/01
!!!CNT: German
!!!OPR: Sinphonia ex D
!!!OTL: Presto
!!!PDT:
!!!AGN: Secular
!!!SMS-siglum: PL-SA
!!!SMS-shelfmark: 233/A VI 37
!!!SMS-shelfwork: 003 M
!!!SMS-variant:
!!!SMS-altvar:
!!!NIFC-rismSourceID: 1001035158
!!!NIFC-islandoraID:
!!!URL-pdf-islandora:
!!!URL-scan: https://bc.bdsandomierz.pl/dlibra/publication/1587/edition/1555/content @EN{Scan on Cyfrowa Biblioteka Diecezjalna w Sandomierzu} @PL{Skany w portalu Cyfrowa Biblioteka Diecezjalna w Sandomierzu}
!!!ONB-nifc: UWAGA: części Sinphonii: 1. Allegro di molto, 2. Andante, 3. Presto
!!!AIN: 2 cor 2 oboe 1 viola 2 violn
!!!key: D
**kern	**kern	**kern	**kern	**kern	**kern	**kern	**kern
*part8	*part7	*part6	*part5	*part4	*part3	*part2	*part1
*staff8	*staff7	*staff6	*staff5	*staff4	*staff3	*staff2	*staff1
*I"Baſso	*I"Alto Viola	*I"Violino Secundo	*I"Violino Primo	*I"Cornu Secondo	*I"Cornu Primo in #D:	*I"Oboe Secundo	*I"Oboe Primo
*I'bc	*I'a-vla	*I'vl 2	*I'vl 1	*I'cor 2	*I'cor 1	*I'ob 2	*I'ob 1
*	*Iviola	*Ivioln	*Ivioln	*Icor	*Icor	*Ioboe	*Ioboe
*	*ICstr	*ICstr	*ICstr	*ICbras	*ICbras	*ICww	*ICww
*IGcont	*	*	*	*	*	*	*
*clefF4	*clefC3	*clefG2	*clefG2	*clefG2	*clefG2	*clefG2	*clefG2
*	*	*	*	*ITrd6c10	*ITrd6c10	*	*
*k[f#c#]	*k[f#c#]	*k[f#c#]	*k[f#c#]	*k[f#c#]	*k[f#c#]	*k[f#c#]	*k[f#c#]
*D:	*D:	*D:	*D:	*D:	*D:	*D:	*D:
*M3/8	*M3/8	*M3/8	*M3/8	*M3/8	*M3/8	*M3/8	*M3/8
=1	=1	=1	=1	=1	=1	=1	=1
*all\right	*all\right	*all\right	*all\right	*all\right	*all\right	*all\right	*all\right
!	!	!	!	!	!	!	!LO:TX:a:B:t=Presto
!LO:TX:a:B:t=[P]resto	!LO:TX:a:i:B:t=Presto	!LO:TX:a:B:t=Presto	!LO:TX:a:B:t=Presto	!LO:TX:a:B:t=Presto	!	!LO:TX:a:B:t=Presto	!
8D\L	8d\L	8d/L	8d/L	8D/L	8d\L	8d/L	8d/L
8F#\	8f#\	8f#/	8f#/	8F#/	8f#\	8f#/	8f#/
8A\J	8a\J	8a/J	8a/J	8A/J	8a\J	8a/J	8a/J
=2	=2	=2	=2	=2	=2	=2	=2
8D\L	8d\L	8d/L	8d/L	8D/L	8d\L	8d/L	8d/L
8F#\	8f#\	8f#/	8f#/	8F#/	8f#\	8f#/	8f#/
8A\J	8a\J	8a/J	8a/J	8A/J	8a\J	8a/J	8a/J
=3	=3	=3	=3	=3	=3	=3	=3
8F#\L	8f#\L	8dd\L	8dd\L	4D/	4d\	8dd\L	8dd\L
8F#\	8f#\	8dd\	8ff#\	.	.	8dd\	8ff#\
8D\J	8d\J	8ff#\J	8aa\J	8d\	8f#\	8ff#\J	8aa\J
=4	=4	=4	=4	=4	=4	=4	=4
!LO:TX:t=P:problem=mixed beam	!LO:TX:t=P:problem=mixed beam	!	!	!	!	!	!
.	.	8qqff#/	8qqaa/	.	.	8qqff#/	8qqaa/
8A\L	8a\L	4ee\	4gg\	4A/	4e\	4ee\	4gg\
8AA/	8A/	.	.	.	.	.	.
8D/J	8d/J	8dd\	8ff#\	8d\	8f#\	8dd\	8ff#\
=5	=5	=5	=5	=5	=5	=5	=5
4G\	4g\	32gg\LLL	32bb\LLL	4D/	4d\	32gg\LLL	32bb\LLL
.	.	32ff#\JJ	32aa\JJ	.	.	32ff#\JJ	32aa\JJ
!	!	!	!	!	!	!LO:N:vis=8	!LO:N:vis=8
.	.	8.ee\J	8.gg\J	.	.	8.ee\J	8.gg\J
8r	8r	8gg\	8bb\	16D/LL	16d\LL	8gg\	8bb\
.	.	.	.	16D/JJ	16d\JJ	.	.
=6	=6	=6	=6	=6	=6	=6	=6
4D\	4d\	32ff#\LLL	32aa\LLL	4D/	4d\	32ff#\LLL	32aa\LLL
.	.	32ee\JJ	32gg\JJ	.	.	32ee\JJ	32gg\JJ
!	!	!	!	!	!	!LO:N:vis=8	!LO:N:vis=8
.	.	8.dd\J	8.ff#\J	.	.	8.dd\J	8.ff#\J
8r	8r	8ff#\	8aa\	16D/LL	16d\LL	8ff#\	8aa\
.	.	.	.	16D/JJ	16d\JJ	.	.
=7	=7	=7	=7	=7	=7	=7	=7
8C#/L	8c#\L	8ff#\L	8aa\L	8A/L	8f#\L	8ff#\L	8aa\L
8AA/	8A\	8ee\	8gg\	8A/	8e\	8ee\	8gg\
8D/J	8d\J	8dd\J	8ff#\J	8d/J	8d\J	8dd\J	8ff#\J
=8	=8	=8	=8	=8	=8	=8	=8
*	*	*	*^	*	*	*	*
.	.	8qqdd/	.	.	.	.	8qqdd/	8qqff#/
4AA/	4A/	4cc#/ 4e/	4.ee/	4.a\	4A/	4a\	4cc#\	4ee\
8r	8r	8r	.	.	8r	8r	8r	8r
*	*	*	*v	*v	*	*	*	*
=9	=9	=9	=9	=9	=9	=9	=9
8D\L	8d\L	8d/L	8d/L	8D/L	8d\L	8d/L	8d/L
8F#\	8f#\	8f#/	8f#/	8F#/	8f#\	8f#/	8f#/
8A\J	8a\J	8a/J	8a/J	8A/J	8a\J	8a/J	8a/J
=10	=10	=10	=10	=10	=10	=10	=10
8D\L	8d\L	8d/L	8d/L	8D/L	8d\L	8d/L	8d/L
8F#\	8f#\	8f#/	8f#/	8F#/	8f#\	8f#/	8f#/
8A\J	8a\J	8a/J	8a/J	8A/J	8a\J	8a/J	8a/J
!	!	!	!LO:LB:g=original	!	!	!	!
=11	=11	=11	=11	=11	=11	=11	=11
8F#\L	8f#\L	8dd\L	8dd\L	4D/	4d\	8dd\L	8dd\L
8F#\	8f#\	8dd\	8ff#\	.	.	8dd\	8ff#\
8D\J	8d\J	8ff#\J	8aa\J	8d\	8f#\	8ff#\J	8aa\J
=12	=12	=12	=12	=12	=12	=12	=12
!LO:TX:t=P:problem:uLO:TX:t=P:problem=uszkodzone źródło	!LO:TX:t=P:problem=mixed beam	!	!	!	!	!	!
.	.	8qqff#/	8qqaa/	.	.	8qqff#/	8qqaa/
8A\Lyy	8a\L	4ee\	4gg\	4A/	4e\	4ee\	4gg\
8AA\yy	8A/	.	.	.	.	.	.
8D\Jyy	8d/J	8dd\	8ff#\	8d\	8f#\	8dd\	8ff#\
!LO:LB:g=original	!	!LO:LB:g=original	!	!	!	!	!
=13	=13	=13	=13	=13	=13	=13	=13
4G\	4g\	32gg\LLL	32bb\LLL	4D/	4d\	(32gg\LLL	32bb\LLL
.	.	32ff#\JJ	32aa\JJ	.	.	32ff#\JJ	32aa\JJ
!	!	!	!LO:N:vis=8	!	!	!LO:N:vis=8	!LO:N:vis=8
.	.	8.ee\J	8.gg\J	.	.	8.ee\J)	8.gg\J
8r	8r	8gg\	8bb\	16D/LL	16d\LL	8gg\	8bb\
.	.	.	.	16D/JJ	16d\JJ	.	.
!	!	!	!	!LO:LB:g=original	!	!	!
=14	=14	=14	=14	=14	=14	=14	=14
!	!	!	!	!LO:TX:t=P:problem=mixed beam	!	!	!
!	!	!	!	!LO:SIC:v:s=8D/L	!	!	!
4D\	4d\	32ff#\LLL	32aa\LLL	8E/L	8d\L	(32ff#\LLL	32aa\LLL
.	.	32ee\JJ	32gg\JJ	.	.	32ee\JJ	32gg\JJ
!	!	!	!LO:N:vis=8	!	!	!LO:N:vis=8	!LO:N:vis=8
.	.	8.dd\J	8.ff#\J	.	.	8.dd\J)	8.ff#\J
.	.	.	.	8d\	8f#\	.	.
8r	8r	8ff#\	8aa\	8f#\J	8a\J	8ff#\	8aa\
!	!LO:LB:g=original	!	!	!	!	!LO:LB:g=original	!LO:LB:g=original
=15	=15	=15	=15	=15	=15	=15	=15
!LO:TX:t=P:problem=mixed beam	!LO:TX:t=P:problem=mixed beam	!	!	!	!	!	!
8G\L	8g\L	8ff#\L	8gg\L	8e\L	8g\L	8ee\L	8gg\L
8A\	8a\	8ee\	8ff#\	8d\	8f#\	8dd\	8ff#\
8AA/J	8A/J	8dd\J	8ee\J	8A\J	8e\J	8cc#\J	8ee\J
=16	=16	=16	=16	=16	=16	=16	=16
4D\	4d\	4dd/ 4e/	4dd/ 4d/	4F#/	4d\	4dd\	4dd\
8r	8r	8r	8r	8r	8r	8r	8r
!	!	!	!	!	!LO:LB:g=original	!	!
=17	=17	=17	=17	=17	=17	=17	=17
!	!	!	!	!	!	!LO:TX:a:t=8	!LO:TX:a:t=8
8d\L	8d\L	4ff#\	4ff#\	4.A/	4.A/	1.r	1.r
8d\	8d\	.	.	.	.	.	.
8d\J	8d\J	16gg#X\LL	16gg#X\LL	.	.	.	.
.	.	16aa\JJ	16aa\JJ	.	.	.	.
=18	=18	=18	=18	=18	=18	=18	=18
8c#\L	8c#\L	8aa\L	8aa\L	4.A/	4.A/	.	.
8c#\	8c#\	8ee\	8ee\	.	.	.	.
8c#\J	8c#\J	8ee\J	8ee\J	.	.	.	.
=19	=19	=19	=19	=19	=19	=19	=19
8F#\L	8f#\L	8ee\L	8ee\L	4.A/	4.A/	.	.
8F#\	8f#\	8dd\	8dd\	.	.	.	.
8F#\J	8f#\J	8dd\J	8dd\J	.	.	.	.
=20	=20	=20	=20	=20	=20	=20	=20
8E\L	8e\L	8dd\L	8dd\L	4.A/	4.A/	.	.
8E\	8e\	8cc#\	8cc#\	.	.	.	.
8E\J	8e\J	8cc#\J	8cc#\J	.	.	.	.
=21	=21	=21	=21	=21	=21	=21	=21
8D/L	8d\L	4ff#\	4ff#\	4.A/	4.A/	1.r	1.r
8D/	8d\	.	.	.	.	.	.
8D/J	8d\J	16gg#X\LL	16gg#X\LL	.	.	.	.
.	.	16aa\JJ	16aa\JJ	.	.	.	.
=22	=22	=22	=22	=22	=22	=22	=22
8C#/L	8c#\L	8aa\L	8aa\L	4.A/	4.A/	.	.
8C#/	8c#\	8ee\	8ee\	.	.	.	.
8C#/J	8c#\J	8ee\J	8ee\J	.	.	.	.
=23	=23	=23	=23	=23	=23	=23	=23
8E\L	8f#\L	8ee\L	8ee\L	4.A/	4.A/	.	.
8E\	8f#\	8dd\	8dd\	.	.	.	.
8E\J	8f#\J	8dd\J	8dd\J	.	.	.	.
=24	=24	=24	=24	=24	=24	=24	=24
8E\L	8e\L	8dd\L	8dd\L	8A/	8A/	.	.
8E\	8e\	8cc#\	8cc#\	8r	8r	.	.
8E\J	8e\J	8cc#\J	8cc#\J	8r	8r	.	.
!	!	!	!LO:LB:g=original	!	!	!	!
=25	=25	=25	=25	=25	=25	=25	=25
!	!	!	!	!LO:TX:a:t=8	!LO:TX:a:t=8	!	!
8D\	8d\	8dd\L	8ff#\L	1.r	1.r	4.dd\	4.ff#\
8r	8r	8b\	8dd\	.	.	.	.
!LO:TX:t=P:problem=uszkodzone źródło	!	!	!	!	!	!	!
8ryy	8r	8dd\J	8ff#\J	.	.	.	.
!LO:LB:g=original	!	!	!	!	!	!	!
=26	=26	=26	=26	=26	=26	=26	=26
8A\	8a\	8cc#\L	8ee\L	.	.	4.cc#\	4.ee\
8r	8r	8a\	8cc#\	.	.	.	.
8r	8r	8cc#\J	8ee\J	.	.	.	.
=27	=27	=27	=27	=27	=27	=27	=27
8E\	8e\	8b/L	8dd\L	.	.	4.b\	4.gg#X\
8r	8r	8g#X/	8b\	.	.	.	.
8r	8r	8b/J	8dd\J	.	.	.	.
!	!LO:LB:g=original	!LO:LB:g=original	!	!	!	!	!
=28	=28	=28	=28	=28	=28	=28	=28
8AA/	8A/	8a\L	8cc#\L	.	.	4.cc#\	4.aa\
8r	8r	8cc#\	8ee\	.	.	.	.
8r	8r	8a\J	8cc#\J	.	.	.	.
=29	=29	=29	=29	=29	=29	=29	=29
!	!LO:TX:a:t=2	!	!	!	!	!	!
2.r	2.r	8ff#\L	8aa\L	1.r	1.r	1.r	1.r
.	.	8dd\	8gg#X\	.	.	.	.
.	.	8cc#\J	8ff#'\J	.	.	.	.
=30	=30	=30	=30	=30	=30	=30	=30
.	.	8cc#\L	8ee'\L	.	.	.	.
.	.	8b\	8dd'\	.	.	.	.
.	.	8a\J	8cc#'\J	.	.	.	.
=31	=31	=31	=31	=31	=31	=31	=31
8AA/L	8A/L	16cc#\LL	(16ee\LL	.	.	.	.
.	.	16b\JJ	16dd\JJ)	.	.	.	.
8C#/	8c#/	8a/L	8cc#\L|	.	.	.	.
8E/J	8e/J	8g#X/J	8b\J|	.	.	.	.
=32	=32	=32	=32	=32	=32	=32	=32
4AA/	4A/	4a/	4a/	.	.	.	.
8r	8r	8r	8r	.	.	.	.
=33	=33	=33	=33	=33	=33	=33	=33
8D\L	8d\L	8d/L	8d/L	8D/L	8d\L	8d/L	8d/L
8F#\	8f#\	8f#/	8f#/	8F#/	8f#\	8f#/	8f#/
8A\J	8a\J	8a/J	8a/J	8A/J	8a\J	8a/J	8a/J
=34	=34	=34	=34	=34	=34	=34	=34
8D\L	8d\L	8d/L	8d/L	8D/L	8d\L	8d/L	8d/L
8F#\	8f#\	8f#/	8f#/	8F#/	8f#\	8f#/	8f#/
8A\J	8a\J	8a/J	8a/J	8A/J	8a\J	8a/J	8a/J
=35	=35	=35	=35	=35	=35	=35	=35
8F#\L	8f#\L	8dd\L	8dd\L	4D/	4d\	8dd\L	8dd\L
8F#\	8f#\	8dd\	8ff#\	.	.	8dd\	8ff#\
8D\J	8d\J	8ff#\J	8aa\J	8d\	8f#\	8ff#\J	8gg\J
=36	=36	=36	=36	=36	=36	=36	=36
!LO:TX:t=P:problem=mixed beam	!LO:TX:t=P:problem=mixed beam	!	!	!	!	!	!
.	.	8qqff#/	8qqaa/	.	.	8qqff#/	8qqaa/
8A\L	8a\L	4ee\	4gg\	4A/	4e\	4ee\	4gg\
8AA/	8A/	.	.	.	.	.	.
8D/J	8d/J	8dd\	8ff#\	8d\	8f#\	8dd\	8ff#\
!	!	!	!	!LO:LB:g=original	!	!	!
=37	=37	=37	=37	=37	=37	=37	=37
!	!	!	!LO:N:vis=16	!	!	!	!
4G\	4g\	32gg\LLL	32bb\LLL	4D/	4d\	32gg\LLL	32bb\LLL
!	!	!	!LO:N:vis=16	!	!	!	!
.	.	32ff#\JJ	32aa\JJ	.	.	(32ff#\JJ	32aa\JJ
!	!	!	!LO:N:vis=8	!	!	!LO:N:vis=8	!LO:N:vis=8
.	.	8.ee\J	8.gg\J	.	.	8.ee\J)	8.gg\J
8r	8r	8gg\	8bb\	16D/LL	16d\LL	8gg\	8bb\
.	.	.	.	16D/JJ	16d\JJ	.	.
=38	=38	=38	=38	=38	=38	=38	=38
!	!	!	!LO:N:vis=16	!	!	!	!
4D\	4d\	32ff#\LLL	32aa\LLL	4D/	4d\	(32ff#\LLL	32aa\LLL
!	!	!	!LO:N:vis=16	!	!	!	!
.	.	32ee\JJ	32gg\JJ	.	.	32ee\JJ	32gg\JJ
!	!	!	!LO:N:vis=8	!	!	!LO:N:vis=8	!LO:N:vis=8
.	.	8.dd\J	8.ff#\J	.	.	8.dd\J)	8.ff#\J
8r	8r	8ff#\	8aa\	16D/LL	16d\LL	8ff#\	8aa\
.	.	.	.	16D/JJ	16d\JJ	.	.
!	!	!	!LO:LB:g=original	!	!	!LO:LB:g=original	!
=39	=39	=39	=39	=39	=39	=39	=39
8F#\L	8f#\L	8ff#\L	8aa\L	8D/L	8f#\L	8ff#\L	8aa\L
8C#\	8c#\	8ee\	8gg\	8F#/	8e\	8ee\	8gg\
8D\J	8d\J	8dd\J	8ff#\J	8d/J	8d\J	8dd\J	8ff#\J
=40	=40	=40	=40	=40	=40	=40	=40
*	*	*	*^	*	*	*	*
.	.	.	8qqff#/	.	.	.	8qqdd/	8qqff#/
8AA/	4A/	4cc#/ 4e/	4ee/	4a\	4A/	4e\	4cc#\	4ee\
8r	.	.	.	.	.	.	.	.
8r	8r	8r	8r	8ryy	8r	8r	8r	8r
*	*	*	*v	*v	*	*	*	*
!	!	!	!	!	!	!LO:LB:g=original	!
=41	=41	=41	=41	=41	=41	=41	=41
8D\L	8d\L	8d/L	8d/L	8D/L	8d\L	8d/L	8d/L
8F#\	8f#\	8f#/	8f#/	8F#/	8f#\	8f#/	8f#/
8A\J	8a\J	8a/J	8a/J	8A/J	8a\J	8a/J	8a/J
!LO:LB:g=original	!	!	!	!	!	!	!LO:LB:g=original
=42	=42	=42	=42	=42	=42	=42	=42
8D\L	8d\L	8d/L	8d/L	8D/L	8d\L	8d/L	8d/L
8F#\	8f#\	8f#/	8f#/	8F#/	8f#\	8f#/	8f#/
8A\J	8a\J	8a/J	8a/J	8A/J	8a\J	8a/J	8a/J
!	!	!LO:LB:g=original	!	!	!	!	!
=43	=43	=43	=43	=43	=43	=43	=43
8F#\L	8f#\L	8dd\L	8dd\L	4D/	4d\	8dd\L	8dd\L
8F#\	8f#\	8dd\	8ff#\	.	.	8dd\	8ff#\
8D\J	8d\J	8ff#\J	8aa\J	8d\	8f#\	8ff#\J	8aa\J
!	!LO:LB:g=original	!	!	!	!	!	!
=44	=44	=44	=44	=44	=44	=44	=44
.	.	8qqff#/	8qqaa/	.	.	8qqff#/	.
8E/L	8e\L	4ee\	4gg\	4A\	4e\	4ee\	4gg\
8AA/	8A\	.	.	.	.	.	.
8D/J	8d\J	8dd\	8ff#\	8d\	8f#\	8dd\	8ff#\
=45	=45	=45	=45	=45	=45	=45	=45
!	!	!	!LO:N:vis=16	!	!	!	!
4G\	4g\	32gg\LLL	32bb\LLL	4D/	4d\	(32gg\LLL	32bb\LLL
!	!	!	!LO:N:vis=16	!	!	!	!
.	.	32ff#\JJ	32aa\JJ	.	.	32ff#\JJ	32aa\JJ
!	!	!LO:N:vis=8	!	!	!	!LO:N:vis=8	!LO:N:vis=8
.	.	8.ee\J	8.gg\J	.	.	8.ee\J)	8.gg\J
8r	8r	8gg\	8bb\	16D/LL	16d\LL	8gg\	8bb\
.	.	.	.	16D/JJ	16d\JJ	.	.
=46	=46	=46	=46	=46	=46	=46	=46
!	!	!	!LO:N:vis=16	!LO:TX:t=P:problem=mixed beam	!	!	!
4D/	4d\	32ff#\LLL	32aa\LLL	8D/L	8d\L	(32ff#\LLL	32aa\LLL
!	!	!	!LO:N:vis=16	!	!	!	!
.	.	32ee\JJ	32gg\JJ	.	.	32ee\JJ	32gg\JJ
!	!	!	!	!	!	!LO:N:vis=8	!LO:N:vis=8
.	.	8.dd\J	8.ff#\J	.	.	8.dd\J)	8.ff#\J
.	.	.	.	8d\	8f#\	.	.
8r	8r	8ff#\	8aa\	8f#\J	8a\J	8ff#\	8aa\
=47	=47	=47	=47	=47	=47	=47	=47
!	!LO:TX:t=P:problem=mixed beam	!	!	!	!	!	!
.	.	8qqff#/	.	.	.	.	.
8G\L	8g\L	8ee\L	8gg\L	8e\L	8g\L	8ee\L	8gg\L
8A\	8a\	8dd\	8ff#\	8d\	8f#\	8dd\	8ff#\
8AA/J	8A/J	8cc#\J	8ee\J	8A\J	8e\J	8cc#\J	8ee\J
=48	=48	=48	=48	=48	=48	=48	=48
4D\	4d\	4dd/ 4d/	4dd/ 4d/	4F#/	4d\	4dd\	4dd\
8r	8r	8r	8r	8r	8r	8r	8r
=49	=49	=49	=49	=49	=49	=49	=49
!	!	!	!	!	!LO:TX:a:t=8	!	!
4.d\	4.dd\	8a/L	4.ffn\	1.r	1.r	1.r	1.r
.	.	8a/	.	.	.	.	.
.	.	8a/J	.	.	.	.	.
=50	=50	=50	=50	=50	=50	=50	=50
!	!	!	!LO:N:vis=4	!	!	!	!
4.cn\	4.ccn\	8a/L	8ff#\	.	.	.	.
!	!	!	!LO:N:vis=4	!	!	!	!
.	.	8a/	8gg\	.	.	.	.
!	!	!	!LO:N:vis=4	!	!	!	!
.	.	8a/J	8aa\	.	.	.	.
=51	=51	=51	=51	=51	=51	=51	=51
4.B-X\	4.b-X\	8fn/L	4.dd\	.	.	.	.
.	.	8f/	.	.	.	.	.
.	.	8f/J	.	.	.	.	.
=52	=52	=52	=52	=52	=52	=52	=52
4.Fn\	4.fn\	8a/L	8dd\L	.	.	.	.
.	.	8a/	8ee\	.	.	.	.
.	.	8a/J	8ffn\J	.	.	.	.
!	!	!	!LO:LB:g=original	!	!	!	!
=53	=53	=53	=53	=53	=53	=53	=53
4.G\	4.g\	8b-X\L	4.ee\	1.r	1.r	1.r	1.r
.	.	8b-\	.	.	.	.	.
.	.	8b-\J	.	.	.	.	.
=54	=54	=54	=54	=54	=54	=54	=54
4.G#X\	4.g#X\	8bn\L	8ee\L	.	.	.	.
.	.	8b\	8ffn\	.	.	.	.
.	.	8b\J	8dd\J	.	.	.	.
=55	=55	=55	=55	=55	=55	=55	=55
!LO:TX:t=P:problem=mixed beam	!LO:TX:t=P:problem=mixed beam	!	!	!	!	!	!
.	.	.	8qqdd/	.	.	.	.
8AA/L	8A/L	4e/	4.cc#X\	.	.	.	.
8A\	8a\	.	.	.	.	.	.
!	!	!LO:N:cue:vis=4	!	!	!	!	!
8Gn\J	8g\J	8e/	.	.	.	.	.
=56	=56	=56	=56	=56	=56	=56	=56
8Fn\L	8fn\L	8fn/	8dd\	.	.	.	.
8E\	8f\	8r	8r	.	.	.	.
8D\J	8d\J	8r	8r	.	.	.	.
=57	=57	=57	=57	=57	=57	=57	=57
4AA/	4A/	8a/L	4.a/	4.A/	4.A/	4.cc#X\	4.ee\
.	.	8e/	.	.	.	.	.
8r	8r	8g/J	.	.	.	.	.
!	!	!LO:LB:g=original	!	!	!	!	!
=58	=58	=58	=58	=58	=58	=58	=58
!LO:TX:a:t=1	!LO:TX:a:t=1	!	!	!	!	!	!
4.r	4.r	8fn/L	4.a/	4.A/	4.A/	4.dd\	4.ffn\
.	.	8a/	.	.	.	.	.
.	.	8d/J	.	.	.	.	.
!LO:LB:g=original	!	!	!	!	!	!	!
=59	=59	=59	=59	=59	=59	=59	=59
4AA/	4A/	8A/	8aa\L	4.A/	4.A/	4.cc#\	4.ee\
.	.	8r	8ee\	.	.	.	.
8r	8r	8r	8gg\J	.	.	.	.
=60	=60	=60	=60	=60	=60	=60	=60
4.r	4.r	4.r	8ffn\L	4.A/	4.A/	4.dd\	4.ffn\
.	.	.	8aa\	.	.	.	.
.	.	.	8dd\J	.	.	.	.
!	!LO:LB:g=original	!	!	!LO:LB:g=original	!	!	!
=61	=61	=61	=61	=61	=61	=61	=61
8A\L	8a\L	8cc#X\	8ee\	4.A/	4.A/	4.cc#\	4.ee\
8E\	8e\	8r	8r	.	.	.	.
8A\J	8a\J	8r	8r	.	.	.	.
=62	=62	=62	=62	=62	=62	=62	=62
8Fn\L	8fn\L	8dd\	8ffn\	4.A/	4.A/	4.dd\	4.ffn\
8A\	8a\	8r	8r	.	.	.	.
8D\J	8d\J	8r	8r	.	.	.	.
=63	=63	=63	=63	=63	=63	=63	=63
8AA/	8A/	8cc#X\	8ee\	8A/	8A/	4cc#\	8ee\
8r	8r	8r	8r	8r	8r	.	8r
8r	8r	8r	8r	8r	8r	8r	8r
!	!	!	!	!	!LO:LB:g=original	!LO:LB:g=original	!
=64	=64	=64	=64	=64	=64	=64	=64
8D\L	8d\L	8d/L	8d/L	8D/L	8d\L	8d/L	8d/L
8F#X\	8f#X\	8f#X/	8f#X/	8F#/	8f#\	8f#/	8f#X/
8A\J	8a\J	8a/J	8a/J	8A/J	8a\J	8a/J	8a/J
=65	=65	=65	=65	=65	=65	=65	=65
8D\L	8d\L	8d/L	8d/L	8D/L	8d\L	8d/L	8d/L
8F#\	8f#\	8f#/	8f#/	8F#/	8f#\	8f#/	8f#/
8A\J	8a\J	8a/J	8a/J	8A/J	8a\J	8a/J	8a/J
!	!	!	!LO:LB:g=original	!	!	!	!LO:LB:g=original
=66	=66	=66	=66	=66	=66	=66	=66
8F#\L	8f#\L	8dd\L	8dd\L	4D/	4d\	8dd\L	8dd\L
8F#\	8f#\	8dd\	8ff#\	.	.	8dd\	8ff#\
8F#\J	8f#\J	8ff#\J	8aa\J	8d\	8f#\	8ff#\J	8aa\J
=67	=67	=67	=67	=67	=67	=67	=67
.	.	8qqff#/	8qqaa/	.	.	8qqff#/	8qqaa/
8C#/L	8c#\L	4ee\	4gg\	4A\	4d\	4ee\	4gg\
8AA/	8A\	.	.	.	.	.	.
8D/J	8d\J	8dd\	8ff#\	8d\	8f#\	8dd\	8ff#\
=68	=68	=68	=68	=68	=68	=68	=68
4G\	4g\	32gg\LLL	16bb\LL	4D/	4d\	32gg\LLL	(32bb\LLL
.	.	32ff#\JJ	.	.	.	(32ff#\JJ	32aa\JJ
!	!	!	!	!	!	!LO:N:vis=8	!LO:N:vis=8
.	.	8.ee\J	16aa\J	.	.	8.ee\J)	8.gg\J)
.	.	.	8gg\J	.	.	.	.
8r	8r	8gg\	8bb\	16D/LL	16d\LL	8gg\	8bb\
.	.	.	.	16D/JJ	16d\JJ	.	.
=69	=69	=69	=69	=69	=69	=69	=69
!	!	!LO:N:vis=16	!	!	!	!	!
4D\	4d\	32ff#\LLL	16aa\LL	4D/	4d\	(32ff#\LLL	(32aa\LLL
!	!	!LO:N:vis=16	!	!	!	!	!
.	.	32ee\JJ	.	.	.	32ee\JJ	32gg\JJ
!	!	!LO:N:vis=8	!	!	!	!LO:N:vis=8	!LO:N:vis=8
.	.	8.dd\J	16gg\J	.	.	8.dd\J)	8.ff#\J)
.	.	.	8ff#\J	.	.	.	.
8r	8r	8ff#\	8aa\	16D/LL	16d\LL	8ff#\	8aa\
.	.	.	.	16D/JJ	16d\JJ	.	.
=70	=70	=70	=70	=70	=70	=70	=70
!LO:N:vis=4	!	!	!	!	!	!	!
8A\	8a\L	8ff#\L	8aa\L	8d\L	8f#\L	(8ff#\L	8aa\L
!LO:N:vis=4	!	!	!	!	!	!	!
8C#/	8c#\	8ee\	8gg\	8A\	8e\	8ee\)	8gg\
!LO:N:vis=4	!	!	!	!	!	!	!
8D/	8d\J	8dd\J	8ff#\J	8d\J	8d\J	8dd\J	8ff#\J
=71	=71	=71	=71	=71	=71	=71	=71
*	*	*	*^	*	*	*	*
.	.	.	.	.	.	.	8qqdd/	8qqff#/
4AA/	4A/	4cc#/ 4e/	4ee/	4a\	4A/	4e\	4cc#\	4ee\
8r	8r	8r	8r	8ryy	8r	8r	8r	8r
*	*	*	*v	*v	*	*	*	*
!	!	!LO:LB:g=original	!	!	!	!	!
=72	=72	=72	=72	=72	=72	=72	=72
8D\L	8d\L	8d/L	8d/L	8D/L	8d\L	8d/L	8d/L
8F#\	8f#\	8f#/	8f#/	8F#/	8f#\	8f#/	8f#/
8A\J	8a\J	8a/J	8a/J	8A/J	8a\J	8a/J	8a/J
=73	=73	=73	=73	=73	=73	=73	=73
!LO:TX:t=P:problem=pierwsza nuta niewidoczna - uszkodzone źródło	!	!	!	!	!	!	!
8D\yy	8d\L	8d/L	8d/L	8D/L	8d\L	8d/L	8d/L
8F#\L	8f#\	8f#/	8f#/	8F#/	8f#\	8f#/	8f#/
8A\J	8a\J	8a/J	8a/J	8A/J	8a\J	8a/J	8a/J
=74	=74	=74	=74	=74	=74	=74	=74
8F#\L	8f#\L	8dd\L	8dd\L	4D/	4d\	8dd\L	8dd\L
8F#\	8f#\	8dd\	8ff#\	.	.	8dd\	8ff#\
8D\J	8d\J	8ff#\J	8aa\J	8d\	8f#\	8ff#\J	8aa\J
!	!	!	!	!LO:LB:g=original	!	!	!
=75-	=75	=75	=75	=75	=75	=75	=75
!LO:TX:t=P:problem=mixed beam	!LO:TX:t=P:problem=mixed beam	!	!	!	!	!	!LO:N:xstem
.	.	8qqff#/	8qqaa/	.	.	8qqff#/	8qqaa/
8A\L	8a\L	4ee\	4gg\	4A\	4e\	4ee\	4gg\
8AA/	8A/	.	.	.	.	.	.
8D/J	8d/J	8dd\	8ff#\	8d\	8f#\	8dd\	8ff#\
!	!LO:LB:g=original	!	!	!	!	!	!
=76	=76	=76	=76	=76	=76	=76	=76
!	!	!	!LO:N:vis=16	!	!	!	!
4G\	4g\	32gg\LLL	32bb\LLL	4D/	4d\	32gg\LLL	32bb\LLL
!	!	!	!LO:N:vis=16	!	!	!	!
.	.	32ff#\JJ	32aa\JJ	.	.	32ff#\JJ	32aa\JJ
!	!	!	!	!	!	!LO:N:vis=8	!LO:N:vis=8
.	.	8.ee\J	8.gg#X\J	.	.	8.ee\J	8.gg\J
8r	8r	8gg\	8bb\	16D/LL	16d\LL	8gg\	8bb\
.	.	.	.	16D/JJ	16d\JJ	.	.
=77	=77	=77	=77	=77	=77	=77	=77
!	!	!	!	!LO:TX:t=P:problem=mixed beam	!	!	!
4D/	4d\	32ff#\LLL	32aa\LLL	8D/L	8d\L	32ff#\LLL	32aa\LLL
.	.	32ee\JJ	32gg\JJ	.	.	32ee\JJ	32gg\JJ
!	!	!	!	!	!	!LO:N:vis=8	!LO:N:vis=8
.	.	8.dd\J	8.ff#\J	.	.	8.dd\J	8.ff#\J
.	.	.	.	8d\	8f#\	.	.
8r	8r	8ff#\	8aa\	8f#\J	8a\J	8ff#\	8aa\
!	!	!	!	!	!LO:LB:g=original	!LO:LB:g=original	!
=78	=78	=78	=78	=78	=78	=78	=78
!LO:TX:t=P:problem=mixed beam	!LO:TX:t=P:problem=mixed beam	!	!	!	!	!	!
.	.	8qqff#/	.	.	.	.	.
8G\L	8g\L	8ee\L	8gg\L	8e\L	8g\L	8ff#\L	8gg\L
8A\	8a\	8dd\	8ff#\	8d\	8f#\	8ee\	8ff#\
8AA/J	8A/J	8cc#\J	8ee\J	8A\J	8e\J	8dd\J	8ee\J
=79	=79	=79	=79	=79	=79	=79	=79
8D\L	8d\L	16dd\LL	4dd\	4F#/	4d\	4dd\	4dd\
.	.	16a\	.	.	.	.	.
8F#\	8f#\	16a\	.	.	.	.	.
.	.	16a\	.	.	.	.	.
8D\J	8d\J	16a\	16ff#/LL 16a/ 16d/	8r	8r	8ff#\	8aa\
.	.	16a\JJ	16aa/JJ	.	.	.	.
=80	=80	=80	=80	=80	=80	=80	=80
8E/L	8e\L	16a/LL	4gg/ 4cc#/	4.A/	4.A/	4.ee\	4.gg\
.	.	16a/	.	.	.	.	.
8C#/	8c#\	16a/	.	.	.	.	.
.	.	16a/	.	.	.	.	.
.	.	.	8qqaa/	.	.	.	.
*	*	*	*Xtuplet	*	*	*	*
8AA/J	8A\J	16a/	24gg\LL	.	.	.	.
.	.	.	(24ff#\	.	.	.	.
.	.	16a/JJ	.	.	.	.	.
.	.	.	24ee\JJ)	.	.	.	.
!	!	!	!	!	!	!	!LO:LB:g=original
=81	=81	=81	=81	=81	=81	=81	=81
8D\L	8d\L	16a/LL	8ff#\L	4.A/	4.A/	4dd\	4ff#\
.	.	16a/	.	.	.	.	.
8F#\	8f#\	16a/	8aa\J	.	.	.	.
.	.	16a/	.	.	.	.	.
8D\J	8d\J	16a/	16ff#/LL 16a/	.	.	8ff#\	8aa\
.	.	16a/JJ	16aa/JJ	.	.	.	.
=82	=82	=82	=82	=82	=82	=82	=82
8E/L	8e\L	16a/LL	4aa/ 4a/	4.A/	4.A/	4ee\	4gg\
.	.	16a/	.	.	.	.	.
8C#/	8c#\	16a/	.	.	.	.	.
.	.	16a/	.	.	.	.	.
.	.	.	8qqaa/	.	.	.	.
8AA/J	8A\J	16a/	24gg/LL	.	.	8g/	8cc#\
.	.	.	24ff#/	.	.	.	.
.	.	16a/JJ	.	.	.	.	.
.	.	.	24ee/JJ	.	.	.	.
=83	=83	=83	=83	=83	=83	=83	=83
!	!	!LO:TX:t=P:problem=mixed beam	!LO:TX:t=P:problem=mixed beam	!	!	!	!LO:TX:t=P:problem=mixed beam
4D\	4d\	8dd\L	8dd\L	4d\	4d\	8f#/L	8dd\L
.	.	16d/L	16d/L	.	.	16d/L	16d/L
.	.	16f#/	16f#/	.	.	16f#/	16f#/
8r	8r	16a/	16a/	8r	8r	16a/	16a/
.	.	16f#/JJ	16f#/JJ	.	.	16f#/JJ	16f#/JJ
!	!	!LO:LB:g=original	!	!	!	!	!
=84	=84	=84	=84	=84	=84	=84	=84
!	!	!LO:TX:t=P:problem=uszkodzone źródło, pierwsza nuta niewidoczna	!	!	!	!LO:TX:t=P:problem=mixed beam	!LO:TX:t=P:problem=mixed beam
8d\L	8dd\L	8d/L	8d/L	8d\L	8d/L	8d/L	8d/L
8A\	8a\	8ff#/ 8a/ 8d/	8ff#/ 8a/ 8d/	8A\	8A/	8ff#\	8ff#\
8F#\J	8f#\J	8aa/J 8a/ 8d/	8aa/J 8a/ 8d/	8F#\J	8F#/J	8aa\J	8aa\J
=85	=85	=85	=85	=85	=85	=85	=85
!	!	!LO:TX:t=P:problem=mixed beam	!LO:TX:t=P:problem=mixed beam	!	!	!	!LO:TX:t=P:problem=mixed beam
4D\	4d\	8dd\L	8dd\L	4D/	4D/	8dd\L	8dd\L
.	.	16d/L	16d/L	.	.	16d/L	16d/L
.	.	16f#/	16f#/	.	.	16f#/	16f#/
8r	8r	16a/	16a/	8r	8r	16a/	16a/
.	.	16f#/JJ	16f#/JJ	.	.	16f#/JJ	16f#/JJ
=86	=86	=86	=86	=86	=86	=86	=86
!	!	!	!	!	!	!LO:TX:t=P:problem=mixed beam	!LO:TX:t=P:problem=mixed beam
8d\L	8dd\L	8d/L	8d/L	8d\L	8d/L	8d/L	8d/L
8A\	8a\	8ff#/ 8a/ 8d/	8ff#/ 8a/ 8d/	8A\	8A/	8ff#\	8ff#\
8F#\J	8f#\J	8aa/J 8a/ 8d/	8aa/J 8a/ 8d/	8F#\J	8F#/J	8aa\J	8aa\J
!LO:LB:g=original	!	!	!	!	!	!	!
=87	=87	=87	=87	=87	=87	=87	=87
!LO:TX:t=P:problem=uszkodzone źródło	!	!	!	!	!	!	!
4D\yy	4d\	4ff#/ 4a/ 4d/	4ff#/ 4a/ 4d/	4D/	4D/	4dd\	4ff#\
8ryy	8r	8r	8r	8r	8r	8r	8r
=88	=88	=88	=88	=88	=88	=88	=88
4D\	4d\	4ff#/ 4a/ 4d/	4ff#/ 4a/ 4d/	4D/	4D/	4a/	4ff#\
8r	8r	8r	8r	8r	8r	8r	8r
=89	=89	=89	=89	=89	=89	=89	=89
4D\	4d\	4ff#/ 4a/ 4d/	4ff#/ 4a/ 4d/	4D/	4D/	4a/	4ff#\
!	!	!	!	!LO:TX:b:t=Panu Swiątkiewiczowi Kłaniam	!	!	!
8r	8r	8r	8r	8r	8r	8r	8r
==	==	==	==	==	==	==	==
*-	*-	*-	*-	*-	*-	*-	*-
!!!system-decoration: [(s1,s2)][(s3,s4)][([(s5,s6)]s7)]s8
!!!RDF**kern: | = vertical stroke
!!!ENC: Tomasz Grochalski
!!!END: 2021-02-08
!!!EED: Andrzej Borzym
!!!EEV: 2022-01-10
